assets/sprite.svg

<svg aria-hidden="true" style="position: absolute; width: 0; height: 0; overflow: hidden;" version="1.1" xmlns="http://www.w3.org/2000/svg" xmlns:xlink="http://www.w3.org/1999/xlink">
<defs>
<symbol id="icon-coin-dollar" viewBox="0 0 32 32">
<title>coin-dollar</title>
<path d="M15 2c-8.284 0-15 6.716-15 15s6.716 15 15 15c8.284 0 15-6.716 15-15s-6.716-15-15-15zM15 29c-6.627 0-12-5.373-12-12s5.373-12 12-12c6.627 0 12 5.373 12 12s-5.373 12-12 12zM16 16v-4h4v-2h-4v-2h-2v2h-4v8h4v4h-4v2h4v2h2v-2h4l-0-8h-4zM14 16h-2v-4h2v4zM18 22h-2v-4h2v4z"></path>
</symbol>
<symbol id="icon-phone" viewBox="0 0 32 32">
<title>phone</title>
<path d="M22 20c-2 2-2 4-4 4s-4-2-6-4-4-4-4-6 2-2 4-4-4-8-6-8-6 6-6 6c0 4 4.109 12.109 8 16s12 8 16 8c0 0 6-4 6-6s-6-8-8-6z"></path>
</symbol>
<symbol id="icon-envelop" viewBox="0 0 32 32">
<title>envelop</title>
<path d="M29 4h-26c-1.65 0-3 1.35-3 3v20c0 1.65 1.35 3 3 3h26c1.65 0 3-1.35 3-3v-20c0-1.65-1.35-3-3-3zM12.461 17.199l-8.461 6.59v-15.676l8.461 9.086zM5.512 8h20.976l-10.488 7.875-10.488-7.875zM12.79 17.553l3.21 3.447 3.21-3.447 6.58 8.447h-19.579l6.58-8.447zM19.539 17.199l8.461-9.086v15.676l-8.461-6.59z"></path>
</symbol>
<symbol id="icon-location" viewBox="0 0 32 32">
<title>location</title>
<path d="M16 0c-5.523 0-10 4.477-10 10 0 10 10 22 10 22s10-12 10-22c0-5.523-4.477-10-10-10zM16 16c-3.314 0-6-2.686-6-6s2.686-6 6-6 6 2.686 6 6-2.686 6-6 6z"></path>
</symbol>
<symbol id="icon-calendar" viewBox="0 0 32 32">
<title>calendar</title>
<path d="M10 12h4v4h-4zM16 12h4v4h-4zM22 12h4v4h-4zM4 24h4v4h-4zM10 24h4v4h-4zM16 24h4v4h-4zM10 18h4v4h-4zM16 18h4v4h-4zM22 18h4v4h-4zM4 18h4v4h-4zM26 0v2h-4v-2h-14v2h-4v-2h-4v32h30v-32h-4zM28 30h-26v-22h26v22z"></path>
</symbol>
<symbol id="icon-rocket" viewBox="0 0 32 32">
<title>rocket</title>
<path d="M22 2l-10 10h-6l-6 8c0 0 6.357-1.77 10.065-0.94l-10.065 12.94 13.184-10.255c1.839 4.208-1.184 10.255-1.184 10.255l8-6v-6l10-10 2-10-10 2z"></path>
</symbol>
<symbol id="icon-heart" viewBox="0 0 32 32">
<title>heart</title>
<path d="M23.6 2c-3.363 0-6.258 2.736-7.599 5.594-1.342-2.858-4.237-5.594-7.601-5.594-4.637 0-8.4 3.764-8.4 8.401 0 9.433 9.516 11.906 16.001 21.232 6.13-9.268 15.999-12.1 15.999-21.232 0-4.637-3.763-8.401-8.4-8.401z"></path>
</symbol>
</defs>
</svg>

<svg aria-hidden="true" style="position:absolute;width:0;height:0" xmlns="http://www.w3.org/2000/svg" overflow="hidden"><defs><symbol id="icon-coin-dollar" viewBox="0 0 32 32"><path d="M15 2C6.716 2 0 8.716 0 17s6.716 15 15 15c8.284 0 15-6.716 15-15S23.284 2 15 2zm0 27C8.373 29 3 23.627 3 17S8.373 5 15 5s12 5.373 12 12-5.373 12-12 12zm1-13v-4h4v-2h-4V8h-2v2h-4v8h4v4h-4v2h4v2h2v-2h4v-8h-4zm-2 0h-2v-4h2v4zm4 6h-2v-4h2v4z"/></symbol><symbol id="icon-phone" viewBox="0 0 32 32"><path d="M22 20c-2 2-2 4-4 4s-4-2-6-4-4-4-4-6 2-2 4-4-4-8-6-8-6 6-6 6c0 4 4.109 12.109 8 16s12 8 16 8c0 0 6-4 6-6s-6-8-8-6z"/></symbol><symbol id="icon-envelop" viewBox="0 0 32 32"><path d="M29 4H3C1.35 4 0 5.35 0 7v20c0 1.65 1.35 3 3 3h26c1.65 0 3-1.35 3-3V7c0-1.65-1.35-3-3-3zM12.461 17.199L4 23.789V8.113l8.461 9.086zM5.512 8h20.976L16 15.875 5.512 8zm7.278 9.553L16 21l3.21-3.447L25.79 26H6.211l6.58-8.447zm6.749-.354L28 8.113v15.676l-8.461-6.59z"/></symbol><symbol id="icon-location" viewBox="0 0 32 32"><path d="M16 0C10.477 0 6 4.477 6 10c0 10 10 22 10 22s10-12 10-22c0-5.523-4.477-10-10-10zm0 16a6 6 0 1 1 0-12 6 6 0 0 1 0 12z"/></symbol><symbol id="icon-calendar" viewBox="0 0 32 32"><path d="M10 12h4v4h-4zm6 0h4v4h-4zm6 0h4v4h-4zM4 24h4v4H4zm6 0h4v4h-4zm6 0h4v4h-4zm-6-6h4v4h-4zm6 0h4v4h-4zm6 0h4v4h-4zM4 18h4v4H4zM26 0v2h-4V0H8v2H4V0H0v32h30V0h-4zm2 30H2V8h26v22z"/></symbol><symbol id="icon-rocket" viewBox="0 0 32 32"><path d="M22 2L12 12H6l-6 8s6.357-1.77 10.065-.94L0 32l13.184-10.255C15.023 25.953 12 32 12 32l8-6v-6l10-10 2-10-10 2z"/></symbol><symbol id="icon-heart" viewBox="0 0 32 32"><path d="M23.6 2c-3.363 0-6.258 2.736-7.599 5.594C14.659 4.736 11.764 2 8.4 2 3.763 2 0 5.764 0 10.401c0 9.433 9.516 11.906 16.001 21.232C22.131 22.365 32 19.533 32 10.401 32 5.764 28.237 2 23.6 2z"/></symbol></defs></svg>
